svg/clockface/clockfacefatsquaresolid/clock_11_45.svg

<?xml version="1.0" encoding="UTF-8" standalone="no"?>
<svg
   height="1000"
   width="1000"
   version="1.1"
   viewBox="0 0 1000 1000"
   id="svg7"
   sodipodi:docname="clock_11_45.svg"
   xmlns:inkscape="http://www.inkscape.org/namespaces/inkscape"
   xmlns:sodipodi="http://sodipodi.sourceforge.net/DTD/sodipodi-0.dtd"
   xmlns="http://www.w3.org/2000/svg"
   xmlns:svg="http://www.w3.org/2000/svg">
  <defs
     id="defs11" />
  <sodipodi:namedview
     id="namedview9"
     pagecolor="#ffffff"
     bordercolor="#000000"
     borderopacity="0.25"
     inkscape:showpageshadow="2"
     inkscape:pageopacity="0.0"
     inkscape:pagecheckerboard="0"
     inkscape:deskcolor="#d1d1d1" />
  <path
     id="path15"
     style="color:#000000;fill:#000000;stroke-width:60;-inkscape-stroke:none"
     d="M 129 129 L 129 159 L 129 869 L 869 869 L 869 129 L 129 129 z M 444.64062 324.11523 L 464.64062 358.75586 L 534.64062 480 A 40.004 40.004 0 0 1 500 540 L 290 540 L 250 540 L 250 460 L 290 460 L 430.71875 460 L 395.35938 398.75586 L 375.35938 364.11523 L 444.64062 324.11523 z " />
</svg>

<svg xmlns="http://www.w3.org/2000/svg" width="1000" height="1000"><path d="M129 129v740h740V129H129zm315.64 195.115 20 34.64 70 121.245A40.004 40.004 0 0 1 500 540H250v-80h180.719l-35.36-61.244-20-34.64 69.282-40z" style="-inkscape-stroke:none" stroke-width="60"/></svg>
